src/4-icons/hand-over-card.svg

<svg width="260" height="260" viewBox="0 0 260 260" fill="none" xmlns="http://www.w3.org/2000/svg">
<path d="M197.281 194.155L216.774 250.314" stroke="black" stroke-width="8" stroke-linecap="round" stroke-linejoin="round"/>
<path d="M93.541 106.399L83.4549 67.9739C83.0555 66.4532 82.3461 65.0315 81.3711 63.7981C80.3961 62.5646 79.1767 61.5461 77.7893 60.8064C76.4019 60.0667 74.8766 59.6219 73.3091 59.4998C71.7416 59.3777 70.1658 59.581 68.6806 60.0969C66.0203 61.0108 63.792 62.8763 62.4246 65.3344C61.0571 67.7925 60.6471 70.6695 61.2734 73.4118C66.1116 94.0639 76.9274 139.996 78.9166 145.724C85.674 165.206 96.5699 205.011 123.27 217.356L132.486 250.344" stroke="black" stroke-width="8" stroke-linecap="round" stroke-linejoin="round"/>
<path d="M121.251 105.689L109.455 69.7032L100.109 41.1342C99.6355 39.6869 98.8784 38.3485 97.8821 37.197C96.8857 36.0456 95.6699 35.1041 94.3057 34.4276C92.9415 33.7511 91.4563 33.3531 89.9366 33.2568C88.4169 33.1606 86.8933 33.368 85.4546 33.867V33.867C82.727 34.8144 80.4572 36.7561 79.0989 39.3042C77.7405 41.8522 77.3936 44.819 78.1274 47.6117L87.3739 82.8681L95.6807 114.566" stroke="black" stroke-width="8" stroke-linecap="round" stroke-linejoin="round"/>
<path d="M144.162 88.8258L119.331 21.1219C118.225 18.1079 115.979 15.649 113.077 14.2748C110.175 12.9006 106.85 12.721 103.817 13.7747V13.7747C100.782 14.8263 98.282 17.0282 96.8554 19.9059C95.4287 22.7836 95.1898 26.1066 96.1901 29.1588L109.975 71.2426L119.561 100.541" stroke="black" stroke-width="8" stroke-linecap="round" stroke-linejoin="round"/>
<path d="M171.591 83.9678L167.703 74.9713L145.951 25.0605C144.761 22.3327 142.586 20.1538 139.861 18.9587C137.135 17.7637 134.059 17.6402 131.247 18.6129V18.6129C129.763 19.1276 128.396 19.9326 127.227 20.9811C126.058 22.0296 125.109 23.3004 124.436 24.7195C123.764 26.1386 123.38 27.6775 123.309 29.2463C123.237 30.8152 123.479 32.3826 124.019 33.8571L135.745 65.8448L147.081 96.7529" stroke="black" stroke-width="8" stroke-linecap="round" stroke-linejoin="round"/>
<path d="M170.582 94.9438L167.653 93.8438" stroke="white" stroke-width="5" stroke-miterlimit="10"/>
<path d="M43.7716 47.412L41.3916 46.522" stroke="white" stroke-width="5" stroke-miterlimit="10"/>
<path d="M145.331 160.458C143.853 160.458 142.387 160.19 141.003 159.669L20.5794 114.526C19.0625 113.957 17.6724 113.095 16.4887 111.989C15.305 110.883 14.3508 109.554 13.6806 108.079C13.0104 106.604 12.6373 105.011 12.5827 103.392C12.5281 101.773 12.7929 100.159 13.3622 98.6421L42.0811 21.9916C42.9751 19.6441 44.5601 17.6229 46.6268 16.1952C48.6935 14.7674 51.1447 14.0001 53.6567 13.9946C55.1313 13.9928 56.5942 14.257 57.975 14.7743L178.409 59.917C179.927 60.4858 181.318 61.3484 182.502 62.4553C183.687 63.5622 184.642 64.8917 185.312 66.3678C185.982 67.844 186.355 69.4378 186.409 71.0581C186.463 72.6784 186.197 74.2934 185.626 75.8109L156.897 152.451C156.008 154.801 154.425 156.824 152.36 158.254C150.295 159.684 147.843 160.453 145.331 160.458Z" fill="white"/>
<path d="M53.6566 16.4937C54.8306 16.4936 55.9952 16.7035 57.0953 17.1135L69.5805 21.7917L177.539 62.2561C178.754 62.7102 179.867 63.4 180.814 64.2859C181.761 65.1718 182.524 66.2362 183.058 67.418C183.592 68.5997 183.887 69.8755 183.927 71.1717C183.966 72.468 183.748 73.7593 183.287 74.9712L154.558 151.612C153.852 153.489 152.591 155.105 150.942 156.247C149.294 157.388 147.336 157.999 145.331 157.999C144.156 158 142.991 157.786 141.893 157.37L21.459 112.187C19.0174 111.269 17.0398 109.42 15.9603 107.045C14.8808 104.671 14.7876 101.965 15.7012 99.5218L44.4201 22.8812C45.1288 21.0045 46.3921 19.388 48.0421 18.2469C49.6921 17.1059 51.6505 16.4943 53.6566 16.4937ZM53.6566 11.4956C50.6355 11.5032 47.6878 12.4276 45.2033 14.1464C42.7188 15.8652 40.8144 18.2976 39.7419 21.1219L11.023 97.7724C9.64364 101.456 9.78389 105.537 11.4129 109.117C13.0419 112.698 16.0262 115.485 19.7096 116.865L140.143 162.008C141.797 162.657 143.555 162.995 145.331 163.007C148.358 162.996 151.31 162.063 153.794 160.333C156.278 158.602 158.176 156.157 159.236 153.321L187.965 76.6906C188.652 74.8655 188.973 72.9227 188.908 70.9735C188.843 69.0243 188.395 67.1071 187.588 65.3316C186.781 63.5561 185.632 61.9573 184.206 60.6268C182.78 59.2963 181.105 58.2602 179.278 57.5779L71.3198 17.1135L58.8546 12.4353C57.1928 11.8109 55.4318 11.4925 53.6566 11.4956Z" fill="white"/>
<path d="M68.1707 25.5402L55.6955 20.862C54.2439 20.3177 52.6357 20.3721 51.2243 21.0132C49.8128 21.6542 48.7136 22.8295 48.1684 24.2807L19.4394 100.961C18.8985 102.414 18.9556 104.022 19.5983 105.433C20.241 106.844 21.4168 107.943 22.8681 108.488L143.292 153.631C144.011 153.9 144.776 154.025 145.544 153.998C146.312 153.972 147.067 153.794 147.766 153.476C148.465 153.157 149.094 152.704 149.618 152.143C150.142 151.581 150.55 150.922 150.819 150.202L179.548 73.5717C179.828 72.8483 179.961 72.0764 179.94 71.301C179.919 70.5256 179.744 69.7622 179.424 69.0551C179.105 68.3481 178.649 67.7116 178.081 67.1827C177.514 66.6539 176.847 66.2432 176.119 65.9746L150.069 56.2084L68.1707 25.5402Z" fill="white" stroke="black" stroke-width="8" stroke-linecap="round" stroke-linejoin="round"/>
<path d="M41.4014 46.522L170.582 94.9434" stroke="black" stroke-width="8" stroke-linecap="round" stroke-linejoin="round"/>
<path d="M178.229 135.368C180.289 130.145 181.308 124.569 181.228 118.954L178.009 110.248L172.011 93.9239L178.009 110.248L172.011 93.9239C170.637 90.216 170.661 86.1342 172.08 82.443C173.498 78.7518 176.214 75.7044 179.718 73.8716C181.222 73.0792 182.979 72.914 184.605 73.4122C186.23 73.9103 187.593 75.0314 188.395 76.5306L200.22 98.5921L190.514 80.489L200.22 98.5921C203.039 104.59 205.855 110.564 208.667 116.515C211.566 123.243 211.286 124.732 211.526 129.69C213.695 175.033 209.287 183.739 189.154 196.964" fill="white"/>
<path d="M178.229 135.368C180.289 130.145 181.308 124.569 181.228 118.954L178.009 110.248L172.011 93.9239L178.009 110.248L172.011 93.9239C170.637 90.216 170.661 86.1342 172.08 82.443C173.498 78.7518 176.214 75.7044 179.718 73.8716V73.8716C181.222 73.0792 182.979 72.914 184.605 73.4122C186.23 73.9103 187.593 75.0314 188.395 76.5306L200.22 98.5921L190.514 80.489L200.22 98.5921C203.039 104.59 205.855 110.564 208.667 116.515C211.566 123.243 211.286 124.732 211.526 129.69C213.695 175.033 209.287 183.739 189.154 196.964" stroke="black" stroke-width="8" stroke-linecap="round" stroke-linejoin="round"/>
</svg>

<svg width="260" height="260" fill="none" xmlns="http://www.w3.org/2000/svg"><path d="m197.281 194.155 19.493 56.159M93.541 106.399 83.455 67.974a11.406 11.406 0 0 0-14.774-7.877 11.395 11.395 0 0 0-7.408 13.315c4.839 20.652 15.654 66.584 17.644 72.312 6.757 19.482 17.653 59.287 44.353 71.632l9.216 32.988" stroke="#000" stroke-width="8" stroke-linecap="round" stroke-linejoin="round"/><path d="m121.251 105.689-11.796-35.986-9.346-28.569a11.467 11.467 0 0 0-14.654-7.267v0a11.465 11.465 0 0 0-7.328 13.745l9.247 35.256 8.307 31.698" stroke="#000" stroke-width="8" stroke-linecap="round" stroke-linejoin="round"/><path d="m144.162 88.826-24.831-67.704a12.243 12.243 0 0 0-15.514-7.347v0a12.244 12.244 0 0 0-7.627 15.384l13.785 42.084 9.586 29.298m52.03-16.573-3.888-8.997-21.752-49.91a11.827 11.827 0 0 0-14.704-6.448v0a11.823 11.823 0 0 0-7.228 15.244l11.726 31.988 11.336 30.908" stroke="#000" stroke-width="8" stroke-linecap="round" stroke-linejoin="round"/><path d="m170.582 94.944-2.929-1.1M43.772 47.412l-2.38-.89" stroke="#fff" stroke-width="5" stroke-miterlimit="10"/><path d="M145.331 160.458c-1.478 0-2.944-.268-4.328-.789L20.579 114.526a12.34 12.34 0 0 1-7.996-11.134c-.055-1.619.21-3.233.78-4.75l28.718-76.65a12.415 12.415 0 0 1 11.576-7.997 12.267 12.267 0 0 1 4.318.78l120.434 45.142a12.327 12.327 0 0 1 6.903 6.45 12.344 12.344 0 0 1 .314 9.444l-28.729 76.64a12.393 12.393 0 0 1-11.566 8.007Z" fill="#fff"/><path d="M53.657 16.494c1.174 0 2.338.21 3.438.62l12.486 4.678 107.958 40.464a9.833 9.833 0 0 1 6.388 8.916 9.854 9.854 0 0 1-.64 3.8l-28.729 76.64a9.86 9.86 0 0 1-9.227 6.387 9.682 9.682 0 0 1-3.438-.629L21.459 112.187a9.846 9.846 0 0 1-5.758-12.665l28.72-76.64a9.877 9.877 0 0 1 9.236-6.388Zm0-4.998a14.924 14.924 0 0 0-13.915 9.626l-28.719 76.65a14.833 14.833 0 0 0 8.687 19.093l120.433 45.143c1.654.649 3.412.987 5.188.999a14.904 14.904 0 0 0 13.905-9.686l28.729-76.63a14.827 14.827 0 0 0-8.687-19.113L71.32 17.113l-12.465-4.678a14.705 14.705 0 0 0-5.198-.94Z" fill="#fff"/><path d="m68.17 25.54-12.474-4.678a5.847 5.847 0 0 0-7.528 3.419L19.44 100.96a5.858 5.858 0 0 0 3.43 7.527l120.423 45.143a5.84 5.84 0 0 0 4.474-.155 5.845 5.845 0 0 0 3.053-3.274l28.729-76.63a5.852 5.852 0 0 0-1.467-6.39 5.84 5.84 0 0 0-1.962-1.207l-26.05-9.767L68.171 25.54Z" fill="#fff" stroke="#000" stroke-width="8" stroke-linecap="round" stroke-linejoin="round"/><path d="m41.401 46.522 129.181 48.421" stroke="#000" stroke-width="8" stroke-linecap="round" stroke-linejoin="round"/><path d="M178.229 135.368a43.065 43.065 0 0 0 2.999-16.414l-3.219-8.706-5.998-16.324 5.998 16.324-5.998-16.324a16.255 16.255 0 0 1 7.707-20.052 6.438 6.438 0 0 1 8.677 2.659l11.825 22.061-9.706-18.103 9.706 18.103a9578.086 9578.086 0 0 0 8.447 17.923c2.899 6.728 2.619 8.217 2.859 13.175 2.169 45.343-2.239 54.049-22.372 67.274" fill="#fff"/><path d="M178.229 135.368a43.065 43.065 0 0 0 2.999-16.414l-3.219-8.706-5.998-16.324 5.998 16.324-5.998-16.324a16.255 16.255 0 0 1 7.707-20.052v0a6.438 6.438 0 0 1 8.677 2.659l11.825 22.061-9.706-18.103 9.706 18.103a9578.086 9578.086 0 0 0 8.447 17.923c2.899 6.728 2.619 8.217 2.859 13.175 2.169 45.343-2.239 54.049-22.372 67.274" stroke="#000" stroke-width="8" stroke-linecap="round" stroke-linejoin="round"/></svg>
